static/logos/optimizely-wordmark-color.svg

<svg width="100" height="24" viewBox="0 0 100 24" fill="none" xmlns="http://www.w3.org/2000/svg">
<g clip-path="url(#clip0_1_1784)">
<path d="M7.92188 12.6269V15.3954C10.0343 15.393 12.0595 14.5785 13.5532 13.1306C15.0469 11.6827 15.8871 9.71963 15.8897 7.67204H13.0335C13.0319 8.98562 12.4927 10.245 11.5345 11.1738C10.5763 12.1027 9.27706 12.6252 7.92188 12.6269Z" fill="#3BE081"/>
<path d="M7.92259 20.253C6.57716 20.253 5.28686 19.7349 4.33551 18.8128C3.38415 17.8906 2.84969 16.6399 2.84969 15.3357C2.84969 14.0315 3.38415 12.7809 4.33551 11.8586C5.28686 10.9365 6.57716 10.4184 7.92259 10.4184V7.67025C6.88364 7.66883 5.85462 7.86574 4.89422 8.24982C3.93381 8.63383 3.06084 9.19753 2.32516 9.90858C1.58948 10.6196 1.00549 11.4643 0.606544 12.3941C0.207593 13.324 0.00149225 14.3209 8.07346e-06 15.3279C-0.0014761 16.3349 0.201686 17.3324 0.597894 18.2634C0.994105 19.1943 1.5756 20.0405 2.30918 20.7536C3.04276 21.4667 3.91406 22.0328 4.87333 22.4195C5.8326 22.8062 6.86105 23.0061 7.9 23.0075H7.92259V20.253Z" fill="#0037FF"/>
<path d="M7.92188 20.2531V23.0012C10.0201 23.0012 12.0324 22.1933 13.516 20.7552C14.9997 19.317 15.8332 17.3665 15.8332 15.3327H12.9948C12.994 16.6368 12.4593 17.8874 11.5082 18.8099C10.5572 19.7323 9.26737 20.2514 7.92188 20.2531Z" fill="#00CCFF"/>
<path d="M7.92188 4.92043V7.66858C10.0201 7.66858 12.0324 6.86068 13.516 5.42252C14.9997 3.98438 15.8332 2.03384 15.8332 0H12.9948C12.994 1.30419 12.4593 2.55476 11.5082 3.47725C10.5572 4.39974 9.26737 4.91877 7.92188 4.92043Z" fill="#861DFF"/>
<path d="M15.8828 4.92043V7.66858C17.981 7.66858 19.9932 6.86068 21.4769 5.42252C22.9606 3.98438 23.794 2.03384 23.794 0H20.9573C20.9565 1.30445 20.4216 2.55527 19.4702 3.4778C18.5187 4.40033 17.2286 4.91919 15.8828 4.92043Z" fill="#FF8110"/>
<path d="M37 11.4825H38.4612L38.8051 12.2306C38.9877 12.0686 39.1899 11.9288 39.4073 11.8143C39.6338 11.7019 39.8692 11.6072 40.1112 11.531C40.4115 11.4392 40.7248 11.3943 41.0396 11.398C41.526 11.3952 42.0072 11.494 42.4507 11.6875C42.8956 11.8799 43.2959 12.1572 43.6277 12.5028C43.9727 12.8653 44.2463 13.2859 44.435 13.7439C44.8345 14.7514 44.8345 15.8665 44.435 16.8739C44.2467 17.3322 43.9731 17.7528 43.6277 18.1151C43.2959 18.461 42.8956 18.7389 42.4507 18.932C42.0076 19.125 41.527 19.2243 41.0412 19.2231C40.7472 19.2285 40.4542 19.1894 40.1726 19.1073C39.9514 19.0389 39.7356 18.9552 39.5268 18.8569C39.3283 18.7505 39.1435 18.6218 38.9762 18.4735V21.8054H37V11.4825ZM40.7813 17.3967C41.0439 17.4027 41.3051 17.3554 41.5478 17.2578C41.7905 17.1602 42.0095 17.0146 42.1908 16.8301C42.5707 16.4525 42.7602 15.947 42.7591 15.3136C42.7728 15.037 42.7296 14.7604 42.632 14.5001C42.5345 14.2397 42.3845 14.0008 42.1908 13.7972C42.0059 13.6179 41.7864 13.4757 41.5449 13.3787C41.3033 13.2817 41.0444 13.2317 40.7829 13.2317C40.5214 13.2317 40.2625 13.2817 40.0209 13.3787C39.7794 13.4757 39.5599 13.6179 39.375 13.7972C38.9972 14.1759 38.8083 14.6814 38.8083 15.3136C38.8083 15.9459 38.9972 16.4514 39.375 16.8301C39.5562 17.0146 39.7753 17.1602 40.018 17.2578C40.2607 17.3554 40.5218 17.4027 40.7845 17.3967H40.7813Z" fill="black"/>
<path d="M49.4622 19.2299C49.0944 19.2341 48.7292 19.1693 48.3869 19.039C48.067 18.915 47.7793 18.7242 47.5441 18.4802C47.3048 18.2285 47.1184 17.934 46.9952 17.6132C46.8576 17.2506 46.7902 16.8664 46.7966 16.4801V13.2311H45.5938V11.6489H46.1088C46.7396 11.6489 47.0549 11.3432 47.0549 10.7318V9.65352H48.7744V11.4877H50.4923V13.2359H48.7744V16.4019C48.7636 16.5336 48.7796 16.6661 48.8216 16.7919C48.8637 16.9176 48.9308 17.0341 49.0193 17.1346C49.1078 17.2352 49.2158 17.3179 49.3372 17.378C49.4586 17.4381 49.5911 17.4744 49.727 17.4849C49.7807 17.4894 49.8347 17.4894 49.8884 17.4849C49.9626 17.4886 50.037 17.4886 50.1113 17.4849C50.1657 17.4807 50.2197 17.4723 50.2727 17.4598C50.3201 17.4478 50.3661 17.431 50.4099 17.4098V19.0765C50.3214 19.1126 50.2295 19.1404 50.1355 19.1594C49.9156 19.2135 49.6889 19.2373 49.4622 19.2299Z" fill="black"/>
<path d="M53.158 10.5654C52.8921 10.572 52.6321 10.4885 52.4227 10.3294C52.2134 10.1702 52.0678 9.94543 52.0109 9.69352C51.954 9.44167 51.9893 9.17839 52.1109 8.94907C52.2325 8.71969 52.4327 8.53858 52.6771 8.43673C52.9215 8.33494 53.1949 8.31883 53.4502 8.39117C53.7056 8.46352 53.9269 8.61975 54.0763 8.83315C54.2257 9.04654 54.2937 9.30364 54.2687 9.56037C54.2438 9.8171 54.1273 10.0574 53.9394 10.2399C53.839 10.3431 53.7179 10.4252 53.5835 10.4812C53.4491 10.5372 53.3043 10.5658 53.158 10.5654ZM52.1263 11.4825H54.1025V19.1512H52.1263V11.4825Z" fill="black"/>
<path d="M55.9922 11.4826H57.4534L57.7973 12.2307C57.9593 12.0741 58.1379 11.9346 58.3301 11.8143C58.5166 11.7027 58.7134 11.6079 58.9177 11.5311C59.1647 11.4399 59.427 11.3948 59.6911 11.3981C60.0419 11.3894 60.3915 11.4425 60.7228 11.5546C60.9704 11.6419 61.2067 11.7569 61.4268 11.8973C61.624 12.0318 61.7935 12.2012 61.9256 12.3965C62.1145 12.2041 62.328 12.0362 62.562 11.8973C62.7972 11.7615 63.0447 11.6468 63.3015 11.5546C63.604 11.4473 63.9237 11.3943 64.246 11.3981C65.1064 11.3981 65.7923 11.6657 66.3089 12.1978C66.8256 12.7299 67.0824 13.5202 67.0824 14.5641V19.1465H65.1034V14.7315C65.125 14.3316 64.9861 13.939 64.7157 13.6361C64.6132 13.521 64.4885 13.4267 64.3484 13.3585C64.2089 13.2902 64.0564 13.2494 63.8997 13.2383C63.7435 13.2273 63.5867 13.2462 63.4379 13.2941C63.2892 13.3419 63.1515 13.4177 63.033 13.5171C62.9898 13.5544 62.949 13.5941 62.9108 13.6361C62.6404 13.9388 62.5015 14.3317 62.525 14.7315V19.1465H60.5469V14.7315C60.5698 14.3317 60.4314 13.9388 60.161 13.6361C60.0585 13.521 59.9337 13.4266 59.7935 13.3583C59.6534 13.2901 59.5008 13.2493 59.3444 13.2382C59.1881 13.2272 59.0309 13.2461 58.8821 13.294C58.7332 13.3418 58.5956 13.4177 58.477 13.5171C58.4339 13.554 58.3934 13.5937 58.3559 13.6361C58.0856 13.939 57.9468 14.3316 57.9684 14.7315V19.1465H55.9922V11.4826Z" fill="black"/>
<path d="M69.9203 10.5651C69.6536 10.5719 69.3925 10.4884 69.1826 10.3289C68.9721 10.1694 68.8258 9.94401 68.769 9.6913C68.7116 9.43864 68.7468 9.17457 68.8691 8.94438C68.9907 8.71426 69.1919 8.53253 69.437 8.43037C69.682 8.32821 69.9561 8.3121 70.2123 8.38475C70.4684 8.45741 70.6907 8.61426 70.84 8.8284C70.99 9.04253 71.0579 9.30056 71.0326 9.55809C71.0073 9.81562 70.8907 10.0566 70.7018 10.2395C70.6011 10.3427 70.4802 10.4248 70.3456 10.4807C70.2116 10.5367 70.0666 10.5654 69.9203 10.5651ZM68.8888 11.4822H70.8697V19.1507H68.8888V11.4822Z" fill="black"/>
<path d="M72.3203 17.5625L75.758 13.3151H72.3203V11.4825H78.2506V13.0647L74.8166 17.3215H78.4253V19.1542H72.3203V17.5625Z" fill="black"/>
<path d="M83.414 19.2294C82.8899 19.2314 82.3714 19.1246 81.893 18.9165C81.4233 18.716 80.9974 18.4302 80.6387 18.0744C80.2751 17.7159 79.9832 17.2951 79.7782 16.8334C79.5683 16.3509 79.4609 15.8326 79.4609 15.3091C79.4609 14.7856 79.5683 14.2673 79.7782 13.7848C79.9832 13.3231 80.2751 12.9023 80.6387 12.5437C80.998 12.1885 81.4233 11.9027 81.893 11.7017C82.3628 11.503 82.869 11.3983 83.3813 11.3939C83.8937 11.3897 84.4017 11.4858 84.8751 11.6767C85.327 11.8627 85.7362 12.1346 86.0776 12.4764C86.4307 12.8349 86.7079 13.2564 86.8949 13.7175C87.0998 14.2243 87.2017 14.7648 87.1949 15.3091C87.1955 15.3954 87.1899 15.4817 87.1788 15.5673C87.1659 15.6502 87.1548 15.7317 87.1437 15.8099C87.1319 15.8881 87.1208 15.982 87.1097 16.0587H81.6091C81.6943 16.4276 81.8992 16.7603 82.193 17.0087C82.5369 17.2795 82.972 17.4162 83.414 17.3921C83.6375 17.3967 83.8609 17.3687 84.0758 17.3092C84.2356 17.2608 84.3887 17.1935 84.5313 17.1088C84.6609 17.0262 84.777 16.9248 84.8751 16.8084H86.9387C86.8239 17.1175 86.6646 17.4094 86.4653 17.6754C86.2492 17.9719 85.9881 18.2356 85.6918 18.4579C85.3776 18.6909 85.0301 18.8791 84.6603 19.0166C84.2622 19.1613 83.8393 19.2335 83.414 19.2294ZM85.3048 14.7316C85.2227 14.3036 84.9887 13.9169 84.643 13.6385C84.298 13.3602 83.8628 13.2078 83.414 13.2078C82.9646 13.2078 82.5301 13.3602 82.1844 13.6385C81.8393 13.9169 81.6054 14.3036 81.5233 14.7316H85.3048Z" fill="black"/>
<path d="M88.6562 8.64951H90.6328V19.1461H88.6562V8.64951Z" fill="black"/>
<path d="M93.6328 21.8961C93.5421 21.8961 93.4532 21.893 93.3661 21.8867C93.2939 21.883 93.2223 21.8746 93.1513 21.8617C93.0816 21.8535 93.0124 21.8367 92.9464 21.8116V20.2294C93.305 20.2523 93.6606 20.152 93.9507 19.9461C94.1896 19.7538 94.3754 19.5077 94.4933 19.2293L94.6643 18.813L91.6562 11.4825H93.7198L95.6964 16.4796L97.5075 11.4825H99.5711C99.0093 12.8816 98.4988 14.1477 98.0402 15.2807C97.8451 15.769 97.6532 16.248 97.4643 16.7128C97.2754 17.1775 97.1075 17.6048 96.9569 17.9883C96.8069 18.3717 96.6828 18.6909 96.5791 18.946C96.476 19.2011 96.418 19.3514 96.3902 19.3968C96.2242 19.794 96.0322 20.1804 95.8137 20.5533C95.6507 20.8389 95.4451 21.0999 95.2038 21.328C95.0026 21.5184 94.763 21.666 94.4995 21.7615C94.2211 21.8554 93.9279 21.9009 93.6328 21.8961Z" fill="black"/>
<path d="M29.6797 7.67025C28.5007 7.67025 27.3482 8.00914 26.368 8.64402C25.3877 9.27889 24.6237 10.1813 24.1725 11.2371C23.7214 12.2929 23.6033 13.4547 23.8333 14.5756C24.0633 15.6964 24.6311 16.7259 25.4647 17.534C26.2983 18.3421 27.3604 18.8924 28.5167 19.1153C29.6731 19.3383 30.8716 19.2239 31.9608 18.7865C33.05 18.3492 33.981 17.6086 34.636 16.6584C35.291 15.7082 35.6406 14.5911 35.6406 13.4483C35.6408 12.6894 35.4867 11.938 35.1873 11.2369C34.8878 10.5357 34.4487 9.89871 33.8951 9.36216C33.3416 8.82556 32.6844 8.39994 31.9611 8.10963C31.2378 7.81932 30.4625 7.67 29.6797 7.67025ZM29.6797 17.2169C28.909 17.2258 28.1529 17.0129 27.5071 16.6051C26.8614 16.1972 26.3549 15.6128 26.052 14.9258C25.7491 14.2388 25.6633 13.4801 25.8056 12.7459C25.9478 12.0115 26.3115 11.3347 26.8509 10.8009C27.3902 10.2672 28.0808 9.90062 28.8352 9.74753C29.5896 9.59451 30.3739 9.66186 31.0888 9.94111C31.8036 10.2204 32.4169 10.699 32.851 11.3164C33.2851 11.9338 33.5204 12.6621 33.5272 13.4092V13.453C33.5306 14.4467 33.1276 15.4013 32.4065 16.1077C31.6854 16.814 30.7048 17.2145 29.6797 17.2215V17.2169Z" fill="black"/>
</g>
<defs>
<clipPath id="clip0_1_1784">
<rect width="100" height="23.4568" fill="white"/>
</clipPath>
</defs>
</svg>

<svg xmlns="http://www.w3.org/2000/svg" width="266.667" height="64" fill="none" viewBox="0 0 100 24"><g clip-path="url(#a)"><path fill="#3BE081" d="M7.922 12.627v2.768a8.107 8.107 0 0 0 5.631-2.264 7.615 7.615 0 0 0 2.337-5.459h-2.857a4.885 4.885 0 0 1-1.498 3.502 5.201 5.201 0 0 1-3.613 1.453Z"/><path fill="#0037FF" d="M7.923 20.253a5.156 5.156 0 0 1-3.587-1.44 4.842 4.842 0 0 1-1.486-3.477c0-1.305.534-2.555 1.486-3.477a5.156 5.156 0 0 1 3.587-1.44V7.67a8.13 8.13 0 0 0-3.029.58 7.933 7.933 0 0 0-2.569 1.659 7.658 7.658 0 0 0-1.718 2.485 7.466 7.466 0 0 0-.01 5.87c.397.93.979 1.777 1.712 2.49a7.932 7.932 0 0 0 2.564 1.665c.96.387 1.988.587 3.027.588h.023v-2.754Z"/><path fill="#0CF" d="M7.922 20.253v2.748a8.04 8.04 0 0 0 5.594-2.246 7.551 7.551 0 0 0 2.317-5.422h-2.838a4.848 4.848 0 0 1-1.487 3.477 5.162 5.162 0 0 1-3.586 1.443Z"/><path fill="#861DFF" d="M7.922 4.92V7.67a8.04 8.04 0 0 0 5.594-2.246A7.551 7.551 0 0 0 15.833 0h-2.838a4.848 4.848 0 0 1-1.487 3.477A5.162 5.162 0 0 1 7.922 4.92Z"/><path fill="#FF8110" d="M15.883 4.92V7.67a8.04 8.04 0 0 0 5.594-2.246A7.551 7.551 0 0 0 23.794 0h-2.837a4.848 4.848 0 0 1-1.487 3.478 5.162 5.162 0 0 1-3.587 1.442Z"/><path fill="#000" d="M37 11.482h1.461l.344.749c.183-.162.385-.302.602-.417.227-.112.462-.207.704-.283.3-.092.614-.137.929-.133a3.48 3.48 0 0 1 1.41.29c.446.192.846.47 1.178.815.345.362.618.783.807 1.24.4 1.008.4 2.123 0 3.13a4.005 4.005 0 0 1-.807 1.242 3.636 3.636 0 0 1-1.177.817 3.51 3.51 0 0 1-1.41.291 2.913 2.913 0 0 1-.868-.116 4.948 4.948 0 0 1-.646-.25 2.884 2.884 0 0 1-.55-.383v3.331H37V11.483Zm3.781 5.915c.263.006.524-.042.767-.14.242-.097.462-.242.643-.427.38-.377.57-.883.568-1.516a2.03 2.03 0 0 0-.127-.814c-.097-.26-.247-.5-.441-.703a1.996 1.996 0 0 0-.646-.418 2.046 2.046 0 0 0-1.524 0c-.242.097-.461.239-.646.418-.378.379-.567.884-.567 1.517 0 .632.19 1.137.567 1.516.181.185.4.33.643.428.243.097.504.145.767.139h-.004ZM49.462 19.23a2.93 2.93 0 0 1-1.075-.191 2.35 2.35 0 0 1-.843-.559 2.624 2.624 0 0 1-.549-.867 3.05 3.05 0 0 1-.198-1.133v-3.249h-1.203V11.65h.515c.63 0 .946-.306.946-.917V9.654h1.72v1.834h1.717v1.748h-1.718v3.166a.978.978 0 0 0 .245.733 1.034 1.034 0 0 0 .708.35.967.967 0 0 0 .161 0c.075.004.149.004.223 0 .055-.004.109-.013.162-.025a.722.722 0 0 0 .137-.05v1.666c-.089.037-.18.064-.274.083a2.48 2.48 0 0 1-.674.07ZM53.158 10.565a1.168 1.168 0 0 1-.735-.236 1.106 1.106 0 0 1-.412-.635 1.08 1.08 0 0 1 .1-.745c.122-.23.322-.41.566-.512.245-.102.518-.118.773-.046.256.073.477.229.626.442a1.083 1.083 0 0 1-.137 1.407 1.07 1.07 0 0 1-.781.325Zm-1.032.918h1.977v7.668h-1.977v-7.668ZM55.992 11.483h1.461l.344.748c.162-.157.34-.296.533-.417.187-.111.383-.206.588-.283.247-.091.509-.136.773-.133.35-.009.7.045 1.032.157.247.087.484.202.704.342.197.135.367.304.499.5.188-.193.402-.36.636-.5.235-.136.483-.25.74-.342.302-.108.622-.16.944-.157.86 0 1.546.268 2.063.8.517.532.773 1.322.773 2.366v4.582h-1.979v-4.415a1.52 1.52 0 0 0-.387-1.095 1.216 1.216 0 0 0-1.805 0 1.51 1.51 0 0 0-.386 1.096v4.415h-1.978v-4.415c.023-.4-.116-.793-.386-1.096a1.189 1.189 0 0 0-.367-.278 1.224 1.224 0 0 0-1.317.16 1.52 1.52 0 0 0-.509 1.214v4.415h-1.976v-7.664ZM69.92 10.565a1.171 1.171 0 0 1-.737-.236 1.105 1.105 0 0 1-.414-.638 1.08 1.08 0 0 1 .1-.747c.122-.23.323-.411.568-.514a1.18 1.18 0 0 1 .775-.045c.256.072.479.23.628.443a1.085 1.085 0 0 1-.138 1.412 1.098 1.098 0 0 1-.782.326Zm-1.031.917h1.98v7.669h-1.98v-7.669ZM72.32 17.563l3.438-4.248H72.32v-1.832h5.93v1.582l-3.433 4.257h3.608v1.832H72.32v-1.591ZM83.414 19.23a3.779 3.779 0 0 1-1.521-.314 4.055 4.055 0 0 1-2.115-2.083 3.819 3.819 0 0 1 0-3.048 4.056 4.056 0 0 1 2.115-2.083 3.909 3.909 0 0 1 2.982-.025c.452.186.861.458 1.203.8.353.358.63.78.817 1.24.205.507.307 1.048.3 1.592 0 .086-.005.173-.016.258-.013.083-.024.165-.035.243-.012.078-.023.172-.034.249h-5.5c.084.369.29.701.583.95.344.27.779.407 1.221.383.224.005.447-.023.662-.083.16-.048.313-.116.455-.2.13-.083.246-.184.344-.3h2.064c-.115.308-.274.6-.474.866-.216.297-.477.56-.773.783a4.174 4.174 0 0 1-1.032.559 3.551 3.551 0 0 1-1.246.212Zm1.89-4.498a1.853 1.853 0 0 0-.661-1.093 1.96 1.96 0 0 0-1.229-.431c-.45 0-.884.152-1.23.43a1.855 1.855 0 0 0-.66 1.094h3.78ZM88.656 8.65h1.977v10.496h-1.977V8.65ZM93.633 21.896c-.09 0-.18-.003-.267-.01a1.682 1.682 0 0 1-.215-.024.86.86 0 0 1-.205-.05v-1.583c.359.023.715-.077 1.005-.283.239-.192.424-.438.542-.717l.171-.416-3.008-7.33h2.064l1.976 4.997 1.811-4.998h2.064c-.562 1.4-1.072 2.666-1.53 3.799-.196.488-.388.967-.577 1.432-.189.464-.356.892-.507 1.275-.15.384-.274.703-.378.958-.103.255-.161.405-.189.45a9.636 9.636 0 0 1-.576 1.157 3.356 3.356 0 0 1-.61.775 2.03 2.03 0 0 1-.704.434 2.58 2.58 0 0 1-.867.134ZM29.68 7.67a6.096 6.096 0 0 0-3.312.974 5.82 5.82 0 0 0-2.195 2.593 5.614 5.614 0 0 0-.34 3.339c.23 1.12.798 2.15 1.632 2.958a6.02 6.02 0 0 0 3.052 1.581 6.135 6.135 0 0 0 3.444-.328 5.925 5.925 0 0 0 2.675-2.129 5.624 5.624 0 0 0 .551-5.421 5.767 5.767 0 0 0-1.292-1.875 5.974 5.974 0 0 0-1.934-1.252 6.123 6.123 0 0 0-2.281-.44Zm0 9.547a3.986 3.986 0 0 1-2.173-.612 3.808 3.808 0 0 1-1.455-1.68 3.667 3.667 0 0 1-.246-2.18 3.737 3.737 0 0 1 1.045-1.944c.54-.534 1.23-.9 1.984-1.053a4.01 4.01 0 0 1 2.254.193c.715.28 1.328.758 1.762 1.375.434.618.67 1.346.676 2.093v.044c.004.994-.4 1.948-1.12 2.655a3.936 3.936 0 0 1-2.727 1.113v-.004Z"/></g><defs><clipPath id="a"><path fill="#fff" d="M0 0h100v23.457H0z"/></clipPath></defs></svg>
